x-pack/plugins/enterprise_search/public/assets/source_icons/mongodb.svg

<svg width="46" height="46" viewBox="-12 0 34 46" fill="none" xmlns="http://www.w3.org/2000/svg">
  <path
    d="M14.8041 5.59336C12.9238 3.36251 11.3047 1.09681 10.9739 0.62624C10.9391 0.591383 10.8869 0.591383 10.8521 0.62624C10.5213 1.09681 8.90218 3.36251 7.02192 5.59336C-9.11683 26.1764 9.56376 40.067 9.56376 40.067L9.72044 40.1716C9.8597 42.3152 10.2079 45.4001 10.2079 45.4001H10.9043H11.6007C11.6007 45.4001 11.9489 42.3326 12.0882 40.1716L12.2448 40.0495C12.2622 40.0495 30.9429 26.1764 14.8041 5.59336ZM10.9043 39.7532C10.9043 39.7532 10.0686 39.0387 9.8423 38.6726V38.6379L10.8521 16.2248C10.8521 16.155 10.9565 16.155 10.9565 16.2248L11.9663 38.6379V38.6726C11.74 39.0387 10.9043 39.7532 10.9043 39.7532Z"
    fill="#06232E" />
</svg>

<svg width="46" height="46" viewBox="-12 0 34 46" fill="none" xmlns="http://www.w3.org/2000/svg"><path d="M14.804 5.593a79.479 79.479 0 0 1-3.83-4.967.084.084 0 0 0-.122 0c-.33.47-1.95 2.737-3.83 4.967-16.139 20.583 2.542 34.474 2.542 34.474l.156.105c.14 2.143.488 5.228.488 5.228H11.6s.348-3.067.487-5.228l.157-.122c.017 0 18.698-13.874 2.56-34.457zm-3.9 34.16s-.835-.714-1.062-1.08v-.035l1.01-22.413c0-.07.104-.07.104 0l1.01 22.413v.035c-.226.366-1.062 1.08-1.062 1.08z" fill="#06232E"/></svg>
